X:2118
T:Poagey dy reenaghyn - step dance
C:T Kermode 
C:Traditional
O:Isle of Man
Z:Clague collection
B:Kiaull Vannin #118 
M:6/8 
L:1/8
K:D 
A>AA AFD|A>AA AFD|B>BB AGF|G2A B2A|A>AA AFD|A>AA AFD|B>BB AGF|G2A B2A||

